communes/24.svg

<?xml version="1.0" encoding="UTF-8" standalone="no"?>
<svg
   xmlns:dc="http://purl.org/dc/elements/1.1/"
   xmlns:cc="http://creativecommons.org/ns#"
   xmlns:rdf="http://www.w3.org/1999/02/22-rdf-syntax-ns#"
   xmlns:svg="http://www.w3.org/2000/svg"
   xmlns="http://www.w3.org/2000/svg"
   xmlns:sodipodi="http://sodipodi.sourceforge.net/DTD/sodipodi-0.dtd"
   xmlns:inkscape="http://www.inkscape.org/namespaces/inkscape"
   version="1.0"
   width="224.61841"
   height="263.1055"
   id="svg2780"
   sodipodi:docname="24.svg">
  <metadata
     id="metadata18">
    <rdf:RDF>
      <cc:Work
         rdf:about="">
        <dc:format>image/svg+xml</dc:format>
        <dc:type
           rdf:resource="http://purl.org/dc/dcmitype/StillImage" />
      </cc:Work>
    </rdf:RDF>
  </metadata>
  <sodipodi:namedview
     pagecolor="#ffffff"
     bordercolor="#666666"
     borderopacity="1"
     objecttolerance="10"
     gridtolerance="10"
     guidetolerance="10"
     inkscape:pageopacity="0"
     inkscape:pageshadow="2"
     inkscape:window-width="640"
     inkscape:window-height="480"
     id="namedview16" />
  <defs
     id="defs2782" />
  <g
     transform="translate(-10.874205,-800.30418)"
     id="layer1">
    <path
       d="M 11.874205,801.30418 L 15.921808,971.32635 C 18.812946,1092.7708 227.55386,1092.7708 230.44501,971.32635 L 234.49261,801.30418 L 11.874205,801.30418 z"
       id="path3282"
       style="fill:#ffffff;fill-opacity:1;fill-rule:evenodd;stroke:none;stroke-width:2;stroke-linecap:butt;stroke-miterlimit:4;stroke-dashoffset:0;stroke-opacity:1" />
    <path
       d="M 123.43317,143.99496 L 106.29921,130.76998 L 100.86254,139.76297 L 69.573346,137.91406 C 64.895286,143.74675 56.55282,148.31175 49.549603,147.16896 C 51.497815,125.77781 60.932392,130.39193 68.866494,129.79388 C 58.705841,127.68396 49.888604,123.40966 45.670275,111.726 C 55.736116,111.14006 65.605795,111.30608 73.707239,118.25033 L 78.644566,101.14602 C 72.072489,106.18617 65.211655,110.41781 55.368595,106.29921 C 59.718465,95.658798 67.346049,93.659631 75.294237,92.505694 L 77.7629,73.285386 C 60.512436,78.29983 58.164164,70.838021 54.757696,64.262143 C 60.988132,61.693376 66.595137,60.165755 72.825573,60.589402 L 96.983209,54.594076 L 108.97386,33.434103 C 104.84348,31.417839 101.65908,27.635731 102.47093,16.39397 C 113.61425,15.60411 123.46935,23.333981 124.01575,23.912116 C 131.85135,19.821035 139.83105,14.961459 146.70914,15.977126 C 146.90859,22.001051 146.87111,27.824503 142.82982,30.260108 L 156.76013,58.826071 C 169.50513,60.243196 182.72629,59.51764 194.88189,63.587065 C 190.29354,78.384883 178.93518,76.539756 166.46517,71.961812 C 173.55415,84.562348 187.2926,93.647008 193.96642,105.02534 C 187.86594,110.12686 180.19348,107.7486 174.3418,106.29921 L 176.50944,119.83733 C 185.57715,112.03185 194.20229,110.42229 202.60674,111.90234 C 202.18456,118.29095 195.8496,126.38577 188.5444,128.01801 C 195.52537,131.70133 198.43317,139.61221 198.98565,147.29365 C 187.6474,147.64174 184.71603,143.19509 181.525,138.65485 L 146.35648,139.05763 L 144.06415,129.71198 L 123.43317,143.99496 z"
       transform="translate(0,804.33069)"
       id="path3323"
       style="opacity:1;fill:#ce4229;fill-opacity:1;fill-rule:evenodd;stroke:#000000;stroke-width:0.99921262;stroke-linecap:butt;stroke-linejoin:round;marker:none;marker-start:none;marker-mid:none;marker-end:none;stroke-miterlimit:4;stroke-dasharray:none;stroke-dashoffset:0;stroke-opacity:1;visibility:visible;display:inline;overflow:visible;enable-background:accumulate" />
    <path
       d="M 171.39578,71.874721 C 182.17678,66.353143 180.68097,59.077735 180.21243,51.94908 C 170.85683,52.906608 163.62408,56.906903 164.16612,72.051054 L 124.01575,91.159208 C 110.93169,84.917463 99.273883,78.675718 84.679006,72.433974 C 86.599474,58.205622 77.424007,51.933113 68.240912,51.596413 C 68.360948,60.707093 67.89579,69.806725 78.042526,71.801681 C 67.27653,75.329896 59.009743,80.304876 64.008918,90.742363 C 70.409487,92.13455 78.39052,83.253727 86.050556,76.459381 C 99.659329,81.21195 111.36426,89.137594 124.01575,95.485635 L 162.57912,75.401383 C 168.50583,81.084728 172.80559,87.951302 185.67876,88.582675 C 186.74177,77.405059 179.10152,74.608359 171.39578,71.874721 z"
       transform="translate(0,804.33069)"
       id="path3319"
       style="opacity:1;fill:#ce4229;fill-opacity:1;fill-rule:evenodd;stroke:#000000;stroke-width:0.99921262;stroke-linecap:butt;stroke-linejoin:round;marker:none;marker-start:none;marker-mid:none;marker-end:none;stroke-miterlimit:4;stroke-dasharray:none;stroke-dashoffset:0;stroke-opacity:1;visibility:visible;display:inline;overflow:visible;enable-background:accumulate" />
    <path
       d="M 124.01575,890.0361 C 124.01575,890.0361 132.64521,877.14327 137.36349,872.67875 C 125.49849,871.70545 130.42549,848.40835 138.58896,848.1168 C 140.17129,849.5391 143.04483,857.48452 139.65582,866.85976 L 145.1524,860.78253 C 140.19776,847.88567 144.49888,838.95244 156.40747,834.23813 C 157.42732,840.49469 157.03453,853.66746 150.23581,856.80877 C 158.18424,853.09786 152.94561,839.08216 176.50944,839.76376 C 175.56624,857.48029 164.26417,856.35195 153.58614,857.48029 C 161.57891,855.85721 166.4713,858.98218 170.16145,864.39109 C 159.58774,870.65899 152.88325,868.05044 147.94348,861.39343 L 142.65348,868.37371 C 157.37159,862.67206 160.78018,871.35668 165.22412,878.49774 C 157.6129,880.71736 150.59528,881.32579 145.29848,877.26341 C 149.88197,880.60712 153.42309,884.60232 155.34947,889.60673 C 148.06395,890.14044 135.48917,889.1874 134.3533,879.78372 L 124.01575,893.48605 L 113.55852,876.38174 C 114.21733,893.21312 102.75589,889.32277 93.63288,889.43039 C 97.061681,884.24819 98.497281,878.56768 106.85786,874.61841 C 99.808075,880.00611 92.168074,878.90142 84.463558,877.08708 C 89.331979,865.82731 96.931369,861.94116 108.44486,868.62309 L 101.39154,859.98276 C 96.34647,866.257 90.058414,869.4652 80.05523,863.50943 C 82.289756,857.06477 87.884158,855.09995 96.101543,856.63244 C 86.467822,854.7797 72.257222,855.50732 73.001906,838.82279 C 98.483097,838.3414 88.582677,850.61751 99.451872,855.22177 C 91.917126,852.41595 91.450566,840.30005 93.280213,832.4748 C 104.31518,836.10822 109.59016,843.65843 104.03653,858.5721 L 111.08986,866.15442 C 104.84899,858.64276 109.2287,849.56291 112.55217,847.14437 C 116.29235,849.39482 123.5222,861.43325 114.96919,870.38642 L 124.01575,890.0361 z"
       id="path3313"
       style="opacity:1;fill:#ce4229;fill-opacity:1;fill-rule:evenodd;stroke:#000000;stroke-width:0.99921262;stroke-linecap:butt;stroke-linejoin:round;marker:none;marker-start:none;marker-mid:none;marker-end:none;stroke-miterlimit:4;stroke-dasharray:none;stroke-dashoffset:0;stroke-opacity:1;visibility:visible;display:inline;overflow:visible;enable-background:accumulate" />
    <path
       d="M 84.816224,94.269025 C 75.72801,94.398643 77.555548,75.434927 54.046097,88.582675 C 62.588535,106.29921 78.402533,94.093192 84.816224,94.269025 z"
       transform="translate(0,804.33069)"
       id="path3321"
       style="opacity:1;fill:#ce4229;fill-opacity:1;fill-rule:evenodd;stroke:#000000;stroke-width:0.99921262;stroke-linecap:butt;stroke-linejoin:round;marker:none;marker-start:none;marker-mid:none;marker-end:none;stroke-miterlimit:4;stroke-dasharray:none;stroke-dashoffset:0;stroke-opacity:1;visibility:visible;display:inline;overflow:visible;enable-background:accumulate" />
    <path
       d="M 125.10834,122.21782 L 135.24749,112.96033 C 127.46883,103.7926 131.99788,98.45596 134.01316,95.503357 C 138.94772,99.068307 144.44149,102.3978 140.71382,109.61001 L 149.53047,102.02768 C 144.34066,99.318714 140.48641,90.605157 148.29614,80.162377 C 155.25767,83.967993 156.84894,90.406092 151.8228,100.08802 L 159.44882,96.032356 C 154.11802,85.999242 162.2964,79.52488 171.57211,76.988381 C 172.18326,85.472824 171.69475,92.995064 164.87145,94.974358 C 176.73378,96.225744 167.66832,77.5212 195.55342,89.155365 C 185.01741,105.66241 172.84911,96.658919 165.40045,97.97202 C 176.31204,98.445434 181.18893,105.12597 183.91543,114.01833 C 160.42147,117.51368 159.98537,105.29025 160.46313,99.030019 L 153.05714,103.08568 C 159.60446,105.33169 164.9795,109.18959 165.92945,119.13199 C 157.39077,120.2663 148.39443,122.4685 146.00381,109.25734 L 124.01575,127.77232 C 120.35203,119.42695 111.38733,114.51162 104.03653,108.55201 C 98.622207,122.03311 91.98411,118.07543 85.69789,119.13199 C 85.622707,110.73601 86.965276,103.34822 97.335875,102.38035 L 90.106217,97.97202 C 88.582677,106.29921 83.250361,115.76505 67.447414,110.66801 C 67.847802,100.69197 76.242455,97.478528 85.16889,96.561356 C 74.87302,89.627077 78.131794,78.407638 78.820899,75.22505 C 88.231648,78.778654 94.31538,84.173999 90.635217,94.974358 L 97.159542,98.853686 C 93.58914,89.302491 93.566049,81.944825 101.39154,79.280711 C 105.86281,85.301991 108.22011,90.86075 101.03887,99.911685 C 103.10462,102.602 105.55934,105.21452 108.79753,107.67034 C 106.10141,100.34419 108.98264,96.786512 114.96919,95.327024 C 122.15614,101.75818 118.06237,106.54423 114.26385,111.37334 L 125.10834,122.21782 z"
       transform="translate(0,804.33069)"
       id="path3311"
       style="opacity:1;fill:#ce4229;fill-opacity:1;fill-rule:evenodd;stroke:#000000;stroke-width:0.99921262;stroke-linecap:butt;stroke-linejoin:round;marker:none;marker-start:none;marker-mid:none;marker-end:none;stroke-miterlimit:4;stroke-dasharray:none;stroke-dashoffset:0;stroke-opacity:1;visibility:visible;display:inline;overflow:visible;enable-background:accumulate" />
    <path
       d="M 124.75567,850.19628 C 107.62541,852.36265 104.5919,840.84187 101.92054,830.8878 C 108.63257,828.9923 115.55514,830.81647 123.25684,846.40512 C 122.89357,840.57855 108.68284,831.23789 124.66751,814.48882 C 142.8971,831.01854 123.01029,841.46505 126.95984,846.58145 C 130.43265,835.32529 139.27789,832.43743 147.94348,833.35647 C 146.57092,841.13687 141.05461,856.62988 124.75567,850.19628 z"
       id="path3317"
       style="opacity:1;fill:#ce4229;fill-opacity:1;fill-rule:evenodd;stroke:#000000;stroke-width:0.99921262;stroke-linecap:butt;stroke-linejoin:round;marker:none;marker-start:none;marker-mid:none;marker-end:none;stroke-miterlimit:4;stroke-dasharray:none;stroke-dashoffset:0;stroke-opacity:1;visibility:visible;display:inline;overflow:visible;enable-background:accumulate" />
    <path
       d="M 125.02017,43.661424 C 134.44804,54.726565 128.81021,62.071311 126.40423,64.599783 C 125.1652,65.901895 125.56172,67.62332 125.54917,71.698388 C 131.35573,60.763477 139.5327,60.198594 149.00148,62.705399 C 149.08869,67.370151 149.02202,78.661825 125.54917,74.519717 L 125.37284,84.747037 C 132.60135,73.72804 141.20382,75.663453 150.05947,79.986044 C 146.03511,87.170351 141.12705,93.311882 125.54917,86.863035 L 125.37284,95.327024 C 133.12781,87.219122 140.92699,89.384681 149.61864,95.327024 C 144.23779,104.49544 137.06786,106.18869 125.81367,97.97202 L 125.81367,105.15305 L 122.37518,105.24122 L 122.37518,98.148354 C 116.99022,104.44565 110.90118,108.84195 98.570207,96.385022 C 105.9281,88.379233 114.18718,88.730838 122.02251,94.798024 L 122.02251,87.7447 C 111.70249,92.829237 104.19219,88.641682 98.570207,78.222712 C 106.44642,74.952989 114.32263,74.426771 122.19884,84.218038 L 122.37518,74.69605 C 104.33219,75.566892 100.97682,67.86995 99.628205,59.002404 C 114.84469,58.127206 118.35022,64.660981 122.37518,70.86614 C 122.44725,66.693053 122.52031,65.068571 121.74994,64.058539 C 118.84449,60.249209 117.06941,48.983304 125.02017,43.661424 z"
       transform="translate(0,804.33069)"
       id="path3309"
       style="opacity:1;fill:#ce4229;fill-opacity:1;fill-rule:evenodd;stroke:#000000;stroke-width:0.99921262;stroke-linecap:butt;stroke-linejoin:round;marker:none;marker-start:none;marker-mid:none;marker-end:none;stroke-miterlimit:4;stroke-dasharray:none;stroke-dashoffset:0;stroke-opacity:1;visibility:visible;display:inline;overflow:visible;enable-background:accumulate" />
    <path
       d="M 140.39681,206.885 C 133.68703,203.85051 135.4282,174.28665 134.28718,143.41966 C 134.03893,136.70393 139.72161,135.19066 143.38929,132.32257 C 140.46522,140.09291 143.90837,146.995 155.60855,152.77113 C 159.37813,143.3043 156.14626,136.30856 148.62611,130.82634 C 149.84698,128.67635 152.93057,128.69953 156.10729,128.83136 C 153.44265,140.72532 159.65328,147.24741 169.57342,151.52427 C 173.01887,141.92818 169.96671,134.18855 159.44882,128.58198 C 162.82791,128.84824 166.2631,129.33892 169.32404,128.33261 C 166.96726,136.86072 170.4837,144.73625 186.03201,151.2749 C 187.43337,142.77245 184.51821,135.17875 173.31401,129.3301 C 179.18069,126.83389 187.27897,146.83975 201.99186,129.3301 C 193.15598,118.80776 180.6868,126.60341 173.56338,126.33763 C 184.22965,124.00044 186.08432,116.73912 185.53327,108.13343 C 175.05569,110.41049 167.96227,115.2015 169.07467,126.08826 L 160.34663,125.09077 C 167.92329,121.21125 172.86192,116.11418 167.57843,106.29921 C 152.72627,109.91195 155.5401,118.04389 154.11231,125.09077 C 146.29753,123.75561 137.89851,130.89196 129.4285,139.05763 C 127.99801,136.85364 128.79308,132.98048 128.54683,129.88831 C 141.29729,130.68907 149.58988,126.67053 150.05947,114.19467 C 139.87897,111.63316 133.79143,116.71183 128.54683,123.36399 C 133.46864,113.92563 132.04782,106.20149 124.66751,100.08802 C 119.16071,105.09825 114.33661,110.4748 122.19884,122.65866 C 115.10992,116.22128 107.9045,111.41477 100.1572,114.19467 C 102.42971,128.33002 110.98351,131.29865 122.19884,129.53565 L 120.61184,139.73272 C 113.09,133.73455 105.813,126.82958 95.396211,125.65632 C 96.126603,115.14782 91.591366,109.37839 82.347561,107.84667 C 81.170362,113.37697 80.68688,118.97034 90.282551,125.47999 C 87.260722,125.7279 84.278886,125.24009 80.936896,125.47999 C 79.499653,117.65604 80.261429,108.56969 61.540254,110.668 C 63.235032,115.85388 62.834346,120.68054 75.646903,127.77232 C 67.019112,128.67887 57.269145,115.82441 46.022941,130.59365 C 53.693934,136.79117 62.10467,137.8105 71.767574,130.06465 C 68.375459,133.81026 66.095766,141.11562 64.361584,150.16662 C 76.200244,150.66495 78.876764,141.21581 79.173565,129.18298 C 82.499422,129.1242 85.587837,129.06543 88.582677,129.00665 C 79.932708,132.56289 78.117223,140.34043 80.760563,150.87195 C 89.642329,148.28837 95.397006,142.83126 92.045882,129.00665 C 95.597955,128.96378 98.873611,130.02659 102.09687,131.29898 C 91.931236,133.61541 93.263198,143.06828 92.222215,151.04829 C 99.756032,149.42301 106.91371,147.1959 106.29921,132.53331 C 109.43498,135.53799 115.93547,141.99827 116.02718,145.58196 C 117.10851,187.83816 114.80595,203.0352 107.38686,209.94354 L 140.39681,206.885 z"
       transform="translate(0,804.33069)"
       id="path2517"
       style="fill:#ce4229;fill-opacity:1;fill-rule:evenodd;stroke:#000000;stroke-width:0.99921262;stroke-linecap:butt;stroke-linejoin:round;stroke-miterlimit:4;stroke-dasharray:none;stroke-opacity:1" />
    <path
       d="M 23.59375,202.1875 C 57.005636,276.71909 189.36936,276.7191 222.78125,202.1875 L 23.59375,202.1875 z"
       transform="translate(0,804.33069)"
       id="rect3325"
       style="opacity:1;fill:#316b31;fill-opacity:1;fill-rule:evenodd;stroke:#000000;stroke-width:1.00000012px;stroke-linecap:butt;stroke-linejoin:miter;marker:none;marker-start:none;marker-mid:none;marker-end:none;stroke-miterlimit:4;stroke-dasharray:none;stroke-dashoffset:0;stroke-opacity:1;visibility:visible;display:inline;overflow:visible;enable-background:accumulate" />
    <path
       d="M 11.874205,801.30418 L 15.921808,971.32635 C 18.812946,1092.7708 227.55386,1092.7708 230.44501,971.32635 L 234.49261,801.30418 L 11.874205,801.30418 z"
       id="path3533"
       style="fill:none;fill-opacity:1;fill-rule:evenodd;stroke:#000000;stroke-width:2;stroke-linecap:butt;stroke-miterlimit:4;stroke-dashoffset:0;stroke-opacity:1" />
  </g>
</svg>

<?xml version="1.0" encoding="UTF-8"?>
<svg version="1.0" viewBox="0 0 224.62 263.11" xmlns="http://www.w3.org/2000/svg" xmlns:cc="http://creativecommons.org/ns#" xmlns:dc="http://purl.org/dc/elements/1.1/" xmlns:rdf="http://www.w3.org/1999/02/22-rdf-syntax-ns#">
<metadata>
<rdf:RDF>
<cc:Work rdf:about="">
<dc:format>image/svg+xml</dc:format>
<dc:type rdf:resource="http://purl.org/dc/dcmitype/StillImage"/>
</cc:Work>
</rdf:RDF>
</metadata>
<g transform="translate(-10.874 -800.3)">
<path d="m11.874 801.3 4.0476 170.02c2.8911 121.44 211.63 121.44 214.52 0l4.0476-170.02h-222.62z" fill="#fff" fill-rule="evenodd"/>
<path transform="translate(0 804.33)" d="m123.43 143.99-17.134-13.225-5.4367 8.993-31.289-1.8489c-4.6781 5.8327-13.021 10.398-20.024 9.2549 1.9482-21.391 11.383-16.777 19.317-17.375-10.161-2.1099-18.978-6.3842-23.196-18.068 10.066-0.58594 19.936-0.41992 28.037 6.5243l4.9373-17.104c-6.5721 5.0402-13.433 9.2718-23.276 5.1532 4.3499-10.64 11.977-12.64 19.926-13.794l2.4687-19.22c-17.25 5.0144-19.599-2.4474-23.005-9.0232 6.2304-2.5688 11.837-4.0964 18.068-3.6727l24.158-5.9953 11.991-21.16c-4.1304-2.0163-7.3148-5.7984-6.5029-17.04 11.143-0.78986 20.998 6.94 21.545 7.5181 7.8356-4.0911 15.815-8.9507 22.693-7.935 0.19945 6.0239 0.16197 11.847-3.8793 14.283l13.93 28.566c12.745 1.4171 25.966 0.69157 38.122 4.761-4.5884 14.798-15.947 12.953-28.417 8.3747 7.089 12.601 20.827 21.685 27.501 33.064-6.1005 5.1015-13.773 2.7233-19.625 1.2739l2.1676 13.538c9.0677-7.8055 17.693-9.415 26.097-7.935-0.42218 6.3886-6.7571 14.483-14.062 16.116 6.981 3.6833 9.8888 11.594 10.441 19.276-11.338 0.34809-14.27-4.0986-17.461-8.6388l-35.169 0.40278-2.2923-9.3456-20.631 14.283z" fill="#ce4229" fill-rule="evenodd" stroke="#000" stroke-linejoin="round" stroke-width=".99921"/>
<path transform="translate(0 804.33)" d="m171.4 71.875c10.781-5.5216 9.2852-12.797 8.8166-19.926-9.3556 0.95753-16.588 4.9578-16.046 20.102l-40.15 19.108c-13.084-6.2417-24.742-12.483-39.337-18.725 1.9205-14.228-7.255-20.501-16.438-20.838 0.12004 9.1107-0.34512 18.21 9.8016 20.205-10.766 3.5282-19.033 8.5032-14.034 18.941 6.4006 1.3922 14.382-7.4886 22.042-14.283 13.609 4.7526 25.314 12.678 37.965 19.026l38.563-20.084c5.9267 5.6833 10.226 12.55 23.1 13.181 1.063-11.178-6.5772-13.974-14.283-16.708z" fill="#ce4229" fill-rule="evenodd" stroke="#000" stroke-linejoin="round" stroke-width=".99921"/>
<path d="m124.02 890.04s8.6295-12.893 13.348-17.357c-11.865-0.9733-6.938-24.27 1.2255-24.562 1.5823 1.4223 4.4559 9.3677 1.0669 18.743l5.4966-6.0772c-4.9546-12.897-0.65352-21.83 11.255-26.544 1.0198 6.2566 0.62706 19.429-6.1717 22.571 7.9484-3.7109 2.7098-17.727 26.274-17.045-0.9432 17.717-12.245 16.588-22.923 17.717 7.9928-1.6231 12.885 1.5019 16.575 6.9108-10.574 6.2679-17.278 3.6594-22.218-2.9977l-5.29 6.9803c14.718-5.7016 18.127 2.983 22.571 10.124-7.6112 2.2196-14.629 2.828-19.926-1.2343 4.5835 3.3437 8.1246 7.3389 10.051 12.343-7.2855 0.53371-19.86-0.41933-20.996-9.823l-10.338 13.702-10.457-17.104c0.65881 16.831-10.803 12.941-19.926 13.049 3.4288-5.1822 4.8644-10.863 13.225-14.812-7.0498 5.3877-14.69 4.283-22.394 2.4687 4.8684-11.26 12.468-15.146 23.981-8.464l-7.0533-8.6403c-5.0451 6.2742-11.333 9.4824-21.336 3.5267 2.2345-6.4447 7.8289-8.4095 16.046-6.877-9.6337-1.8527-23.844-1.1251-23.1-17.81 25.481-0.48139 15.581 11.795 26.45 16.399-7.5347-2.8058-8.0013-14.922-6.1717-22.747 11.035 3.6334 16.31 11.184 10.756 26.097l7.0533 7.5823c-6.2409-7.5117-1.8612-16.592 1.4623-19.01 3.7402 2.2504 10.97 14.289 2.417 23.242l9.0466 19.65z" fill="#ce4229" fill-rule="evenodd" stroke="#000" stroke-linejoin="round" stroke-width=".99921"/>
<path transform="translate(0 804.33)" d="m84.816 94.269c-9.0882 0.12962-7.2607-18.834-30.77-5.6864 8.5424 17.717 24.356 5.5105 30.77 5.6864z" fill="#ce4229" fill-rule="evenodd" stroke="#000" stroke-linejoin="round" stroke-width=".99921"/>
<path transform="translate(0 804.33)" d="m125.11 122.22 10.139-9.2575c-7.7787-9.1677-3.2496-14.504-1.2343-17.457 4.9346 3.565 10.428 6.8944 6.7007 14.107l8.8166-7.5823c-5.1898-2.709-9.0441-11.423-1.2343-21.865 6.9615 3.8056 8.5528 10.244 3.5267 19.926l7.626-4.0557c-5.3308-10.033 2.8476-16.507 12.123-19.044 0.61115 8.4844 0.12264 16.007-6.7007 17.986 11.862 1.2514 2.7969-17.453 30.682-5.819-10.536 16.507-22.704 7.5036-30.153 8.8167 10.912 0.47341 15.788 7.154 18.515 16.046-23.494 3.4954-23.93-8.7281-23.452-14.988l-7.406 4.0557c6.5473 2.246 11.922 6.1039 12.872 16.046-8.5387 1.1343-17.535 3.3365-19.926-9.8746l-21.988 18.515c-3.6637-8.3454-12.628-13.261-19.979-19.22-5.4143 13.481-12.052 9.5234-18.339 10.58-0.075183-8.396 1.2674-15.784 11.638-16.752l-7.2297-4.4083c-1.5235 8.3272-6.8559 17.793-22.659 12.696 0.40039-9.976 8.795-13.189 17.721-14.107-10.296-6.9343-7.0371-18.154-6.348-21.336 9.4107 3.5536 15.494 8.9489 11.814 19.749l6.5243 3.8793c-3.5704-9.5512-3.5935-16.909 4.232-19.573 4.4713 6.0213 6.8286 11.58-0.35267 20.631 2.0658 2.6903 4.5205 5.3028 7.7587 7.7587-2.6961-7.3262 0.18511-10.884 6.1717-12.343 7.187 6.4312 3.0932 11.217-0.70534 16.046l10.844 10.844z" fill="#ce4229" fill-rule="evenodd" stroke="#000" stroke-linejoin="round" stroke-width=".99921"/>
<path d="m124.76 850.2c-17.13 2.1664-20.164-9.3544-22.835-19.308 6.712-1.8955 13.635-0.07133 21.336 15.517-0.36327-5.8266-14.574-15.167 1.4107-31.916 18.23 16.53-1.6572 26.976 2.2923 32.093 3.4728-11.256 12.318-14.144 20.984-13.225-1.3726 7.7804-6.8889 23.273-23.188 16.84z" fill="#ce4229" fill-rule="evenodd" stroke="#000" stroke-linejoin="round" stroke-width=".99921"/>
<path transform="translate(0 804.33)" d="m125.02 43.661c9.4279 11.065 3.79 18.41 1.3841 20.938-1.239 1.3021-0.84251 3.0235-0.85506 7.0986 5.8066-10.935 13.984-11.5 23.452-8.993 0.08721 4.6648 0.02054 15.956-23.452 11.814l-0.17633 10.227c7.2285-11.019 15.831-9.0836 24.687-4.761-4.0244 7.1843-8.9324 13.326-24.51 6.877l-0.17633 8.464c7.755-8.1079 15.554-5.9423 24.246 0-5.3808 9.1684-12.551 10.862-23.805 2.645v7.181l-3.4385 0.08817v-7.0929c-5.385 6.2973-11.474 10.694-23.805-1.7633 7.3579-8.0058 15.617-7.6542 23.452-1.587v-7.0533c-10.32 5.0845-17.83 0.89698-23.452-9.522 7.8762-3.2697 15.752-3.7959 23.629 5.9953l0.17634-9.522c-18.043 0.87084-21.398-6.8261-22.747-15.694 15.216-0.8752 18.722 5.6586 22.747 11.864 0.07207-4.1731 0.14513-5.7976-0.62524-6.8076-2.9054-3.8093-4.6805-15.075 3.2702-20.397z" fill="#ce4229" fill-rule="evenodd" stroke="#000" stroke-linejoin="round" stroke-width=".99921"/>
<path transform="translate(0 804.33)" d="m140.4 206.88c-6.7098-3.0345-4.9686-32.598-6.1096-63.465-0.24825-6.7157 5.4344-8.229 9.1021-11.097-2.9241 7.7703 0.51908 14.672 12.219 20.449 3.7696-9.4668 0.53771-16.463-6.9824-21.945 1.2209-2.15 4.3045-2.1268 7.4812-1.995-2.6646 11.894 3.546 18.416 13.466 22.693 3.4454-9.5961 0.39329-17.336-10.125-22.942 3.3791 0.26626 6.8143 0.75694 9.8752-0.24937-2.3568 8.5281 1.1597 16.404 16.708 22.942 1.4014-8.5024-1.5138-16.096-12.718-21.945 5.8667-2.4962 13.965 17.51 28.678 0-8.8359-10.522-21.305-2.7267-28.428-2.9925 10.666-2.3372 12.521-9.5985 11.97-18.204-10.478 2.2771-17.571 7.0681-16.459 17.955l-8.728-0.99749c7.5767-3.8795 12.515-8.9766 7.2318-18.792-14.852 3.6127-12.038 11.745-13.466 18.792-7.8148-1.3352-16.214 5.8012-24.684 13.967-1.4305-2.204-0.63542-6.0772-0.88167-9.1693 12.75 0.80076 21.043-3.2178 21.513-15.694-10.18-2.5615-16.268 2.5172-21.513 9.1693 4.9218-9.4384 3.501-17.162-3.8793-23.276-5.5068 5.0102-10.331 10.387-2.4687 22.571-7.0889-6.4374-14.294-11.244-22.042-8.464 2.2725 14.135 10.826 17.104 22.042 15.341l-1.587 10.197c-7.5218-5.9982-14.799-12.903-25.216-14.076 0.73039-10.508-3.8048-16.278-13.049-17.81-1.1772 5.5303-1.6607 11.124 7.935 17.633-3.0218 0.24791-6.0037-0.2399-9.3457 0-1.4372-7.824-0.67547-16.91-19.397-14.812 1.6948 5.1859 1.2941 10.013 14.107 17.104-8.6278 0.90655-18.378-11.948-29.624 2.8213 7.671 6.1975 16.082 7.2168 25.745-0.529-3.3921 3.7456-5.6718 11.051-7.406 20.102 11.839 0.49833 14.515-8.9508 14.812-20.984 3.3259-0.05878 6.4143-0.11755 9.4091-0.17633-8.65 3.5562-10.465 11.334-7.8221 21.865 8.8818-2.5836 14.636-8.0407 11.285-21.865 3.5521-0.04287 6.8277 1.0199 10.051 2.2923-10.166 2.3164-8.8337 11.769-9.8747 19.749 7.5338-1.6253 14.691-3.8524 14.077-18.515 3.1358 3.0047 9.6363 9.465 9.728 13.049 1.0813 42.256-1.2212 57.453-8.6403 64.362l33.01-3.0585z" fill="#ce4229" fill-rule="evenodd" stroke="#000" stroke-linejoin="round" stroke-width=".99921"/>
<path transform="translate(0 804.33)" d="m23.594 202.19c33.412 74.532 165.78 74.532 199.19 0h-199.19z" fill="#316b31" fill-rule="evenodd" stroke="#000" stroke-width="1px"/>
<path d="m11.874 801.3 4.0476 170.02c2.8911 121.44 211.63 121.44 214.52 0l4.0476-170.02h-222.62z" fill="none" stroke="#000" stroke-width="2"/>
</g>
</svg>
